X:513
T:Set 13 - Jigs
M:6/8
R:Jig
K:Gmaj
A|: BAG EGD | EGD EGA | BAG EGD | EAA AGA |
BAG EGD | EGD EGA | BAG EGD |1 EGG G2A :|2 EGG G2D ||
|: GBd e2d | dgd B2A | GBd e2d | eaa aga |
bag agf | ged B2A | BAG EGD |1 EGG G2D :|2 EGG G3 ||